images/services-page/Data.svg

<svg width="24" height="24" viewBox="0 0 24 24" fill="none" xmlns="http://www.w3.org/2000/svg">
<path d="M18 7L18 17C18 18.6569 15.3137 20 12 20C8.68629 20 6 18.6569 6 17L6 7M18 7C18 5.34315 15.3137 4 12 4C8.68629 4 6 5.34315 6 7M18 7C18 8.65685 15.3137 10 12 10C8.68629 10 6 8.65685 6 7M18 12C18 13.6569 15.3137 15 12 15C8.68629 15 6 13.6569 6 12" stroke="rgba(102, 221, 141, 1)" stroke-width="2" stroke-linecap="round" stroke-linejoin="round"/>
</svg>

<svg xmlns="http://www.w3.org/2000/svg" width="24" height="24" fill="none"><path stroke="rgba(102, 221, 141, 1)" stroke-linecap="round" stroke-linejoin="round" stroke-width="2" d="M18 7v10c0 1.657-2.686 3-6 3s-6-1.343-6-3V7m12 0c0-1.657-2.686-3-6-3S6 5.343 6 7m12 0c0 1.657-2.686 3-6 3S6 8.657 6 7m12 5c0 1.657-2.686 3-6 3s-6-1.343-6-3"/></svg>
